img/process/icon2.svg

<svg width="24" height="25" viewBox="0 0 24 25" fill="none" xmlns="http://www.w3.org/2000/svg">
<g clip-path="url(#clip0_30_17054)">
<path d="M7.07803 20.4846C7.07803 18.9335 5.81669 17.6721 4.26557 17.6721C2.71445 17.6721 1.45311 18.9335 1.45311 20.4846V21.8908C1.45311 22.666 0.775208 23.3439 0 23.3439V24.7501H2.85934C5.18566 24.7501 7.07803 22.8109 7.07803 20.4846Z" fill="url(#paint0_linear_30_17054)"/>
<path d="M11.7685 6.63766C11.3933 6.73858 11.1703 7.12286 11.2714 7.4987C11.3683 7.8603 11.7394 8.09814 12.1325 7.99581C12.5103 7.89419 12.7296 7.50803 12.6296 7.13477C12.528 6.75756 12.1397 6.53758 11.7685 6.63766Z" fill="url(#paint1_linear_30_17054)"/>
<path d="M7.79077 11.9737C8.16389 12.0726 8.54996 11.8555 8.65182 11.4766C8.75335 11.0977 8.52736 10.7155 8.15536 10.6155H8.15466C7.95521 10.5617 7.9013 10.6022 7.76025 10.6482C7.76822 11.072 7.7738 11.5116 7.77675 11.9668C7.78191 11.9683 7.78552 11.9723 7.79077 11.9737Z" fill="url(#paint2_linear_30_17054)"/>
<path d="M15.541 18.0009C15.4393 17.6229 15.0512 17.4043 14.6799 17.5045C14.2982 17.6072 14.0836 17.9966 14.1828 18.3655C14.2831 18.7397 14.6649 18.9609 15.0439 18.8627C15.4191 18.7617 15.6421 18.3775 15.541 18.0016V18.0009Z" fill="url(#paint3_linear_30_17054)"/>
<path d="M17.8805 9.27056C18.1545 8.99592 18.1545 8.54958 17.8805 8.2756C17.6064 8.00147 17.1609 8.00035 16.8856 8.2756C16.6116 8.54958 16.6116 8.99658 16.8863 9.27056C17.1596 9.54385 17.6059 9.54385 17.8805 9.27056Z" fill="url(#paint4_linear_30_17054)"/>
<path d="M13.4472 2.16631C11.1374 2.24956 9.01716 3.16262 7.32715 4.32183C7.51657 5.61125 7.65039 7.21618 7.72164 9.20107C7.98489 9.16967 8.25414 9.18631 8.5178 9.25723C9.64457 9.55849 10.3125 10.7136 10.0099 11.8403C9.75477 12.7934 8.89383 13.4045 7.97603 13.4045C7.90848 13.4045 7.84117 13.3842 7.77363 13.3777C7.76514 14.5023 7.73964 15.615 7.69113 16.6776C8.41131 16.9768 8.97417 17.3754 9.34171 17.8917C10.086 18.9374 9.88761 20.1638 9.80933 20.5153C9.54857 21.6831 10.2371 22.8719 11.4167 23.0991C12.0835 23.2269 12.7537 23.29 13.419 23.29C19.2018 23.29 24.0467 18.5927 23.9996 12.6657C23.9503 6.65439 18.7483 1.96658 13.4472 2.16631ZM15.8909 7.28105C16.7149 6.45845 18.0524 6.45845 18.875 7.28105C19.6976 8.10365 19.6976 9.44191 18.875 10.2645V10.2652C18.0525 11.0863 16.7142 11.0864 15.8916 10.2652C15.0697 9.44186 15.0697 8.10365 15.8909 7.28105ZM9.91302 7.86192C9.61373 6.75034 10.2665 5.58364 11.4044 5.27947C12.5229 4.97943 13.6854 5.64682 13.9875 6.77082C14.2895 7.89529 13.6231 9.05225 12.4961 9.35393C11.372 9.65519 10.2151 8.99164 9.91302 7.86192ZM15.4075 20.2207C14.2836 20.5218 13.1258 19.8524 12.8244 18.7294C12.5224 17.6049 13.1887 16.4479 14.3157 16.1463C15.4475 15.8452 16.5982 16.5138 16.8988 17.6383C17.2017 18.7645 16.5321 19.92 15.4075 20.2207ZM20.8765 14.7517C20.5753 15.8784 19.4175 16.5453 18.2934 16.243C17.1696 15.9422 16.4988 14.7888 16.802 13.6599C17.1064 12.5228 18.2711 11.87 19.3852 12.1685C20.5092 12.4699 21.178 13.629 20.8765 14.7517Z" fill="url(#paint5_linear_30_17054)"/>
<path d="M19.0211 13.5269C18.6528 13.4275 18.2628 13.6421 18.1601 14.024C18.0585 14.4028 18.2845 14.785 18.6565 14.885C19.0416 14.9845 19.4185 14.7588 19.5183 14.3879C19.6185 14.0137 19.3953 13.6271 19.0211 13.5269Z" fill="url(#paint6_linear_30_17054)"/>
<path d="M6.36646 13.4534C6.36842 13.2182 6.37494 12.9866 6.37494 12.7503C6.37494 7.29776 6.00895 0.750488 4.26559 0.750488C2.52224 0.750488 2.15625 7.29776 2.15625 12.7503C2.15625 12.9866 2.16277 13.2182 2.16473 13.4534H6.36646Z" fill="url(#paint7_linear_30_17054)"/>
<path d="M4.26578 16.2658C4.99843 16.2658 5.67769 16.4703 6.27866 16.8001C6.30904 16.1691 6.33224 15.5191 6.34846 14.8596H2.18311C2.19932 15.5191 2.22248 16.1691 2.2529 16.8001C2.85388 16.4703 3.53313 16.2658 4.26578 16.2658Z" fill="url(#paint8_linear_30_17054)"/>
</g>
<defs>
<linearGradient id="paint0_linear_30_17054" x1="0" y1="21.2111" x2="7.07803" y2="21.2111" gradientUnits="userSpaceOnUse">
<stop stop-color="#6A11CB"/>
<stop offset="1" stop-color="#2575FC"/>
</linearGradient>
<linearGradient id="paint1_linear_30_17054" x1="11.2471" y1="7.31661" x2="12.6537" y2="7.31661" gradientUnits="userSpaceOnUse">
<stop stop-color="#6A11CB"/>
<stop offset="1" stop-color="#2575FC"/>
</linearGradient>
<linearGradient id="paint2_linear_30_17054" x1="7.76025" y1="11.2937" x2="8.67615" y2="11.2937" gradientUnits="userSpaceOnUse">
<stop stop-color="#6A11CB"/>
<stop offset="1" stop-color="#2575FC"/>
</linearGradient>
<linearGradient id="paint3_linear_30_17054" x1="14.1587" y1="18.1831" x2="15.5654" y2="18.1831" gradientUnits="userSpaceOnUse">
<stop stop-color="#6A11CB"/>
<stop offset="1" stop-color="#2575FC"/>
</linearGradient>
<linearGradient id="paint4_linear_30_17054" x1="16.6802" y1="8.77255" x2="18.086" y2="8.77255" gradientUnits="userSpaceOnUse">
<stop stop-color="#6A11CB"/>
<stop offset="1" stop-color="#2575FC"/>
</linearGradient>
<linearGradient id="paint5_linear_30_17054" x1="7.32715" y1="12.7251" x2="23.9999" y2="12.7251" gradientUnits="userSpaceOnUse">
<stop stop-color="#6A11CB"/>
<stop offset="1" stop-color="#2575FC"/>
</linearGradient>
<linearGradient id="paint6_linear_30_17054" x1="18.1357" y1="14.2056" x2="19.5422" y2="14.2056" gradientUnits="userSpaceOnUse">
<stop stop-color="#6A11CB"/>
<stop offset="1" stop-color="#2575FC"/>
</linearGradient>
<linearGradient id="paint7_linear_30_17054" x1="2.15625" y1="7.10196" x2="6.37494" y2="7.10196" gradientUnits="userSpaceOnUse">
<stop stop-color="#6A11CB"/>
<stop offset="1" stop-color="#2575FC"/>
</linearGradient>
<linearGradient id="paint8_linear_30_17054" x1="2.18311" y1="15.8299" x2="6.34846" y2="15.8299" gradientUnits="userSpaceOnUse">
<stop stop-color="#6A11CB"/>
<stop offset="1" stop-color="#2575FC"/>
</linearGradient>
<clipPath id="clip0_30_17054">
<rect width="24" height="24" fill="white" transform="translate(0 0.750488)"/>
</clipPath>
</defs>
</svg>

<svg width="24" height="25" viewBox="0 0 24 25" fill="none" xmlns="http://www.w3.org/2000/svg"><g clip-path="url(#clip0_30_17054)"><path d="M7.078 20.485a2.815 2.815 0 00-2.812-2.813 2.815 2.815 0 00-2.813 2.813v1.406c0 .775-.678 1.453-1.453 1.453v1.406h2.86c2.326 0 4.218-1.94 4.218-4.265z" fill="url(#paint0_linear_30_17054)"/><path d="M11.768 6.638a.702.702 0 10.363 1.357.702.702 0 00-.363-1.357z" fill="url(#paint1_linear_30_17054)"/><path d="M7.79 11.974a.703.703 0 00.365-1.358c-.2-.054-.254-.014-.395.032.008.424.014.864.017 1.319.005.001.009.005.014.007z" fill="url(#paint2_linear_30_17054)"/><path d="M15.541 18a.703.703 0 10-1.357.364.703.703 0 001.357-.362V18z" fill="url(#paint3_linear_30_17054)"/><path d="M17.88 9.27a.704.704 0 10-.995-.995.704.704 0 00.996.996z" fill="url(#paint4_linear_30_17054)"/><path d="M13.447 2.166c-2.31.084-4.43.997-6.12 2.156.19 1.29.323 2.894.395 4.88a2.107 2.107 0 012.288 2.64 2.11 2.11 0 01-2.034 1.563c-.068 0-.135-.02-.202-.027a87.39 87.39 0 01-.083 3.3c.72.299 1.283.697 1.65 1.214.745 1.045.547 2.272.468 2.623-.26 1.168.428 2.357 1.608 2.584a10.62 10.62 0 002.002.191c5.783 0 10.628-4.697 10.58-10.624-.049-6.012-5.25-10.7-10.552-10.5zm2.444 5.115a2.113 2.113 0 012.984 0c.823.823.823 2.16 0 2.984a2.114 2.114 0 01-2.983 0 2.115 2.115 0 01-.001-2.984zm-5.978.58a2.107 2.107 0 011.491-2.582 2.114 2.114 0 012.584 1.492 2.108 2.108 0 01-1.492 2.583 2.107 2.107 0 01-2.583-1.492zm5.495 12.36a2.112 2.112 0 01-2.584-1.492 2.108 2.108 0 011.492-2.583 2.107 2.107 0 012.583 1.492 2.107 2.107 0 01-1.492 2.583zm5.469-5.47a2.108 2.108 0 01-2.584 1.492 2.108 2.108 0 112.583-1.491z" fill="url(#paint5_linear_30_17054)"/><path d="M19.021 13.527a.702.702 0 10-.365 1.357.702.702 0 00.365-1.357z" fill="url(#paint6_linear_30_17054)"/><path d="M6.366 13.453c.002-.235.009-.466.009-.703 0-5.452-.366-12-2.11-12-1.743 0-2.109 6.548-2.109 12 0 .237.007.468.009.703h4.201z" fill="url(#paint7_linear_30_17054)"/><path d="M4.266 16.266c.732 0 1.412.204 2.013.534.03-.63.053-1.28.07-1.94H2.182c.016.66.04 1.31.07 1.94a4.166 4.166 0 012.013-.534z" fill="url(#paint8_linear_30_17054)"/></g><defs><linearGradient id="paint0_linear_30_17054" x1="0" y1="21.211" x2="7.078" y2="21.211" gradientUnits="userSpaceOnUse"><stop stop-color="#6A11CB"/><stop offset="1" stop-color="#2575FC"/></linearGradient><linearGradient id="paint1_linear_30_17054" x1="11.247" y1="7.317" x2="12.654" y2="7.317" gradientUnits="userSpaceOnUse"><stop stop-color="#6A11CB"/><stop offset="1" stop-color="#2575FC"/></linearGradient><linearGradient id="paint2_linear_30_17054" x1="7.76" y1="11.294" x2="8.676" y2="11.294" gradientUnits="userSpaceOnUse"><stop stop-color="#6A11CB"/><stop offset="1" stop-color="#2575FC"/></linearGradient><linearGradient id="paint3_linear_30_17054" x1="14.159" y1="18.183" x2="15.565" y2="18.183" gradientUnits="userSpaceOnUse"><stop stop-color="#6A11CB"/><stop offset="1" stop-color="#2575FC"/></linearGradient><linearGradient id="paint4_linear_30_17054" x1="16.68" y1="8.773" x2="18.086" y2="8.773" gradientUnits="userSpaceOnUse"><stop stop-color="#6A11CB"/><stop offset="1" stop-color="#2575FC"/></linearGradient><linearGradient id="paint5_linear_30_17054" x1="7.327" y1="12.725" x2="24" y2="12.725" gradientUnits="userSpaceOnUse"><stop stop-color="#6A11CB"/><stop offset="1" stop-color="#2575FC"/></linearGradient><linearGradient id="paint6_linear_30_17054" x1="18.136" y1="14.206" x2="19.542" y2="14.206" gradientUnits="userSpaceOnUse"><stop stop-color="#6A11CB"/><stop offset="1" stop-color="#2575FC"/></linearGradient><linearGradient id="paint7_linear_30_17054" x1="2.156" y1="7.102" x2="6.375" y2="7.102" gradientUnits="userSpaceOnUse"><stop stop-color="#6A11CB"/><stop offset="1" stop-color="#2575FC"/></linearGradient><linearGradient id="paint8_linear_30_17054" x1="2.183" y1="15.83" x2="6.348" y2="15.83" gradientUnits="userSpaceOnUse"><stop stop-color="#6A11CB"/><stop offset="1" stop-color="#2575FC"/></linearGradient><clipPath id="clip0_30_17054"><path fill="#fff" transform="translate(0 .75)" d="M0 0h24v24H0z"/></clipPath></defs></svg>
